src/pos-icons/arrow-top-left-bottom-right.svg

<svg height="24" viewBox="0 0 24 24" width="24" xmlns="http://www.w3.org/2000/svg"><path d="m13 21h8v-8h-2v4.59l-12.59-12.59h4.59v-2h-8v8h2v-4.59l12.59 12.59h-4.59z"/></svg>

<?xml version="1.0" encoding="UTF-8"?><!DOCTYPE svg PUBLIC "-//W3C//DTD SVG 1.1//EN" "http://www.w3.org/Graphics/SVG/1.1/DTD/svg11.dtd"><svg xmlns="http://www.w3.org/2000/svg" xmlns:xlink="http://www.w3.org/1999/xlink" version="1.1" id="mdi-arrow-top-left-bottom-right" width="24" height="24" viewBox="0 0 24 24"><path d="M13,21H21V13H19V17.59L6.41,5H11V3H3V11H5V6.41L17.59,19H13V21Z" /></svg>
